X:1
T:Partita IV Allemande
T:BWV 828
T:J. S. Bach
%%score { ( 1 4 ) | ( 2 3 5 ) }
L:1/8
Q:1/4=96
M:4/4
K:D
V:1 treble nm="Harp"
V:4 treble 
V:2 bass 
V:3 bass 
V:5 bass 
V:1
"^Andante" F | [A,DF-]4 F/E/F/A/ G/F/E/D/ | D<A- A/G/F/E/ F/A/B/=c/- c/A/G/F/- | %3
 F/=c/B/A/ B/G/e- e/d/^c/B/ A/G/4F/4G/e/ | G2 G/4F/4G/4F/4G/4F/4G/4F/4 G/4F/4A/B/c/ d/c/B/A/ | %5
 A f3- f/g/f/e/ f/d/^A- | A/c/B/^A/ A<B- B/d/c/B/ c/d/e/f/ | %7
 (3g/f/e/b- b/a/g/f/ (3g/f/e/g- g/f/e/d/ | (3e/d/c/e- e/d/c/B/ (3c/B/A/f- f/e/d/c/ | %9
 d/B/^A/B/ B<d- d/e/4f/4e/d/ d/e/4f/4e/d/ | d/^g/4a/4b- b/a/g/f/ (3e/d/c/d- (3d/c/B/(3f/e/d/ | %11
 c/A/^G/A/ A<c- c/d/4e/4d/c/ c/d/4e/4d/c/ | =c/f/4^g/4a- a/g/f/e/ (3^d/^c/B/=c- (3c/B/A/(3c/B/A/ | %13
 A<^G- (9:8:4G3/2^d/4e/4f/4 e/d/d/e/ e/^g/a/=c'/ | %14
 e/4=f/4g/4f/4e/4f/4e/4d/4- (9:8:4d3/2c/4d/4e/4 d/c/c/d/ d/e/^g/b/ | %15
 d/4e/4=f/4e/4d/4e/4d/4=c/4- (9:8:4c3/2B/4c/4d/4 c/B/B/c/ c/^f/4^g/4a/c/- | %16
 (3c/B/A/(3B/A/^G/ (3=f/e/d/(3e/d/=c/ (3a/^g/^f/(3g/f/e/ (3=c'/b/a/(3b/a/=g/ | %17
 ^ga/4g/4f/4e/4 ^d/a/A- A/B/c- c/=d/4e/4d/4c/4B/ | A4- A2- A/F/G- | %19
 G/4E/4F/4G/4F/D/- D/D/4E/4F/4^G/4A/- A/4F/4G/4A/4G/E/- E/E/4F/4G/4A/4B/- | %20
 B/4^G/4A/4B/4A/F/- F/F/4G/4A/4B/4c/- c/4A/4B/4c/4B/G/- G/G/4A/4B/4c/4d/- | %21
 (3d/c/B/(3c/B/A/ (3d/=c/B/(3c/B/A/ c/^DE/- (3E/A/B/(3c/B/A/ | %22
 =f/^GA/- (3A/d/e/(3f/e/d/ (3^g/d/e/(3f/e/d/ (3a/d/e/(3f/e/d/ | %23
 b/4=f/4e/4d/4e/B/ =c/^G/A/^D/- D/4E/4F/4G/4A/4B/4^c/4d/4- d/B/G/A/ | A2- A/^GA/- A3 F | %25
 [A,DF-]4 F/E/F/A/ G/F/E/D/ | D<A- A/G/F/E/ F/A/B/=c/- c/A/G/F/- | %27
 F/=c/B/A/ B/G/e- e/d/^c/B/ A/G/4F/4G/e/ | G2 G/4F/4G/4F/4G/4F/4G/4F/4 G/4F/4A/B/c/ d/c/B/A/ | %29
 A f3- f/g/f/e/ f/d/^A- | A/c/B/^A/ A<B- B/d/c/B/ c/d/e/f/ | %31
 (3g/f/e/b- b/a/g/f/ (3g/f/e/g- g/f/e/d/ | (3e/d/c/e- e/d/c/B/ (3c/B/A/f- f/e/d/c/ | %33
 d/B/^A/B/ B<d- d/e/4f/4e/d/ d/e/4f/4e/d/ | d/^g/4a/4b- b/a/g/f/ (3e/d/c/d- (3d/c/B/(3f/e/d/ | %35
 c/A/^G/A/ A<c- c/d/4e/4d/c/ c/d/4e/4d/c/ | =c/f/4^g/4a- a/g/f/e/ (3^d/^c/B/=c- (3c/B/A/(3c/B/A/ | %37
 A<^G- (9:8:4G3/2^d/4e/4f/4 e/d/d/e/ e/^g/a/=c'/ | %38
 e/4=f/4g/4f/4e/4f/4e/4d/4- (9:8:4d3/2c/4d/4e/4 d/c/c/d/ d/e/^g/b/ | %39
 d/4e/4=f/4e/4d/4e/4d/4=c/4- (9:8:4c3/2B/4c/4d/4 c/B/B/c/ c/^f/4^g/4a/c/- | %40
 (3c/B/A/(3B/A/^G/ (3=f/e/d/(3e/d/=c/ (3a/^g/^f/(3g/f/e/ (3=c'/b/a/(3b/a/=g/ | %41
 ^ga/4g/4f/4e/4 ^d/a/A- A/B/c- c/=d/4e/4d/4c/4B/ | A4- A2- A/F/G- | %43
 G/4E/4F/4G/4F/D/- D/D/4E/4F/4^G/4A/- A/4F/4G/4A/4G/E/- E/E/4F/4G/4A/4B/- | %44
 B/4^G/4A/4B/4A/F/- F/F/4G/4A/4B/4c/- c/4A/4B/4c/4B/G/- G/G/4A/4B/4c/4d/- | %45
 (3d/c/B/(3c/B/A/ (3d/=c/B/(3c/B/A/ c/^DE/- (3E/A/B/(3c/B/A/ | %46
 =f/^GA/- (3A/d/e/(3f/e/d/ (3^g/d/e/(3f/e/d/ (3a/d/e/(3f/e/d/ | %47
 b/4=f/4e/4d/4e/B/ =c/^G/A/^D/- D/4E/4F/4G/4A/4B/4^c/4d/4- d/B/G/A/ | A2- A/^GA/- A3 e | %49
 [Ace-]4 e/e/f/g/ f/e/d/c/ | [cea-]2 a/g/f/e/ d/B/c/e/- e/d/c/B/- | %51
 B/A/c/d/- d/c/4B/4f/g/- g/e/4f/4g/4a/4b/- b/4a/4g/4f/4g/e/ | %52
 e2 f/4e/4f3/2- f/f/g/4f/4e/4f/4 a/B/=c- | %53
 c/=c/d/4c/4B/4c/4 f/^G/A- A/B/4^c/4^d/4e/4f/- f/d/4e/4f/4g/4a/- | %54
 a/f/g/4f/4g/- g/f/4g/4a/4g/4f/ g/4f/4e/b/a/- a/g/4f/4e/^d/ | %55
 e/4^d/4c/4B/4a/g/- g/f/4e/4=d/c/ (3d/c/B/g/f/- f/e/4d/4c/4d/4e/ | %56
 B^A- (9:8:4A3/2^e/4f/4^g/4 f/e/e/f/ f/^a/a/b/ | %57
 f/4g/4a/4g/4f/4g/4f/4e/4- (9:8:4e3/2^d/4e/4f/4 e/d/d/e/ e/^a/a/b/ | %58
 e/4f/4g/4f/4e/4f/4e/4d/4 (9:8:4d3/2c/4d/4e/4 d/c/c/d/ d/^g/4^a/4b/d/- | %59
 (3d/c/B/(3c/B/^A/ A<g- (3g/f/e/(3f/e/^d/ d<=c'- | %60
 c'/4a/4b/4=c'/4b- (3b/a/g/(3a/g/f/ g/4f/4e/4^d/4e- (3e/=d/=c/(3d/c/B/ | %61
 =c/GA/4B/4 (3c/d/e/(3=f/e/d/ c/GA/4B/4 (3c/d/e/(3f/e/d/ | %62
 c/^Af/4e/4 f/b/-b/4f/4e/4d/4 e/ce/4d/4 e/^a/-a/4e/4d/4c/4 | %63
 d/Bb/4a/4 g/g/4f/4e/e/4d/4 c/4g/4f/4e/4f/B/ (6:7:6d/4c/4d/4c/4d/4c/4B/4 | B6 z/ D/F/G/ | %65
 A2 z2 A/F/D/E/ F/G/A/B/ | =c/4B/4A/B- B2- B/A/B/c/ B/A/B/^d/- | %67
 d/e/A/^d/- d/e/G/d/- d/e/F/e/- e/d/4e/4f/A/- | (3A/F/G/(3A/G/F/ F<G- G/A/4B/4A/G/ G/A/4B/4A/G/ | %69
 G/c/4d/4e- e/d/c/B/ (3A/G/F/G- (3G/F/E/(3B/A/G/ | F/D/C/D/ D<F- F/G/4A/4G/F/ F/G/4A/4G/F/ | %71
 =F/B/4c/4d- d/c/B/A/ (3^G/^F/E/=F- (3F/E/D/(3F/E/D/ | %72
 (3C/B,/A,/G- (3G/=F/E/(3F/E/D/ (3E/D/C/_B- (3B/A/G/(3A/G/F/ | %73
 (3G/=F/E/d (3d/c/B/(3c/B/A/ (3g/f/e/(3f/e/d/ a<=c- | %74
 c/4A/4B/4=c/4B/G/- G/G/4A/4B/4^c/4d/- d/4B/4c/4d/4c/A/- A/A/4B/4c/4d/4e/- | %75
 e/4c/4d/4e/4d/B/- B/-B/4c/4d/4e/4f/- f/4d/4e/4f/4e/c/- c/c/4d/4e/4f/4g/- | %76
 (3g/f/e/(3f/e/d/ (3g/=f/e/(3f/e/d/ f/^GA/- (3A/d/e/(3f/e/d/ | %77
 ^a/cd/- (3d/G/A/(3_B/A/G/ (3c/G/A/(3B/A/G/ (3d/G/A/(3B/A/G/ | %78
 e/4_B/4A/4G/4A/E/ =F/C/D/^G,/- G,/4A,/4B,/4C/4D/4E/4^F/4G/4- (3G/F/E/(3F/E/D/ | %79
 D/4F/4E/4D/4=c- c/B/4A/4B/e/- e/4d/4^c/4B/4A/4d/4^G/- (3G/A/D/(3=G/F/E/ | D2- D/CD/- D3 e | %81
 [Ace-]4 e/e/f/g/ f/e/d/c/ | [cea-]2 a/g/f/e/ d/B/c/e/- e/d/c/B/- | %83
 B/A/c/d/- d/c/4B/4f/g/- g/e/4f/4g/4a/4b/- b/4a/4g/4f/4g/e/ | %84
 e2 f/4e/4f3/2- f/f/g/4f/4e/4f/4 a/B/=c- | %85
 c/=c/d/4c/4B/4c/4 f/^G/A- A/B/4^c/4^d/4e/4f/- f/d/4e/4f/4g/4a/- | %86
 a/f/g/4f/4g/- g/f/4g/4a/4g/4f/ g/4f/4e/b/a/- a/g/4f/4e/^d/ | %87
 e/4^d/4c/4B/4a/g/- g/f/4e/4=d/c/ (3d/c/B/g/f/- f/e/4d/4c/4d/4e/ | %88
 B^A- (9:8:4A3/2^e/4f/4^g/4 f/e/e/f/ f/^a/a/b/ | %89
 f/4g/4a/4g/4f/4g/4f/4e/4- (9:8:4e3/2^d/4e/4f/4 e/d/d/e/ e/^a/a/b/ | %90
 e/4f/4g/4f/4e/4f/4e/4d/4 (9:8:4d3/2c/4d/4e/4 d/c/c/d/ d/^g/4^a/4b/d/- | %91
 (3d/c/B/(3c/B/^A/ A<g- (3g/f/e/(3f/e/^d/ d<=c'- | %92
 c'/4a/4b/4=c'/4b- (3b/a/g/(3a/g/f/ g/4f/4e/4^d/4e- (3e/=d/=c/(3d/c/B/ | %93
 =c/GA/4B/4 (3c/d/e/(3=f/e/d/ c/GA/4B/4 (3c/d/e/(3f/e/d/ | %94
 c/^Af/4e/4 f/b/-b/4f/4e/4d/4 e/ce/4d/4 e/^a/-a/4e/4d/4c/4 | %95
 d/Bb/4a/4 g/g/4f/4e/e/4d/4 c/4g/4f/4e/4f/B/ (6:7:6d/4c/4d/4c/4d/4c/4B/4 | B6 z/ D/F/G/ | %97
 A2 z2 A/F/D/E/ F/G/A/B/ | =c/4B/4A/B- B2- B/A/B/c/ B/A/B/^d/- | %99
 d/e/A/^d/- d/e/G/d/- d/e/F/e/- e/d/4e/4f/A/- | (3A/F/G/(3A/G/F/ F<G- G/A/4B/4A/G/ G/A/4B/4A/G/ | %101
 G/c/4d/4e- e/d/c/B/ (3A/G/F/G- (3G/F/E/(3B/A/G/ | F/D/C/D/ D<F- F/G/4A/4G/F/ F/G/4A/4G/F/ | %103
 =F/B/4c/4d- d/c/B/A/ (3^G/^F/E/=F- (3F/E/D/(3F/E/D/ | %104
 (3C/B,/A,/G- (3G/=F/E/(3F/E/D/ (3E/D/C/_B- (3B/A/G/(3A/G/F/ | %105
 (3G/=F/E/d (3d/c/B/(3c/B/A/ (3g/f/e/(3f/e/d/ a<=c- | %106
 c/4A/4B/4=c/4B/G/- G/G/4A/4B/4^c/4d/- d/4B/4c/4d/4c/A/- A/A/4B/4c/4d/4e/- | %107
 e/4c/4d/4e/4d/B/- B/-B/4c/4d/4e/4f/- f/4d/4e/4f/4e/c/- c/c/4d/4e/4f/4g/- | %108
 (3g/f/e/(3f/e/d/ (3g/=f/e/(3f/e/d/ f/^GA/- (3A/d/e/(3f/e/d/ | %109
 ^a/cd/- (3d/G/A/(3_B/A/G/ (3c/G/A/(3B/A/G/ (3d/G/A/(3B/A/G/ | %110
 e/4_B/4A/4G/4A/E/ =F/C/D/^G,/- G,/4A,/4B,/4C/4D/4E/4^F/4G/4- (3G/F/E/(3F/E/D/ | %111
 D/4F/4E/4D/4=c- c/B/4A/4B/e/- e/4d/4^c/4B/4A/4d/4^G/- (3G/A/D/(3=G/F/E/ | %112
 D2- D/C!fermata!D/- D3 z |] %113
V:2
 z | z2 A,,2 D,4- | D,2 A,,2 D,4- | D,6 C,2 | D,C,/B,,/ A,,/D,/F,,/A,,/ D,,2- D,,/A,,/B,,/C,/ | %5
 z F,A,C DA,DF- | FB,DF G z z2 | z G,B,^D EB,EG- | GCEG F4- | FDFA ^G2 z F- | FE/D/ E2 z A, z B, | %11
 z CEG F2 z E | ^D=C/B,/ CA,- A, A,2 F, | E,2 z ^G, A,=CA,F, | ^G,B,F,A, G,2 G,2- | G,B,A,=C A,4- | %16
 A,^G, A,2 B,E^D=D- | DB, =CE/^D/ E2 B,E- | E/A,/C/E/ D2 z/ E,/A,/C/[I:staff -1] E2 | %19
[I:staff +1] z A, B,2- B,B, C2- | CC[I:staff -1] D2- D-D E2- | E E2 E[I:staff +1] z A,2 A, | %22
 z B,E,A, z D,2 D,- | D,2 z =C B,A,B,D- | (9:8:4D3/2[I:staff -1]F/4E/4D/4 E2 D C2[I:staff +1] z | %25
 z2 A,,2 D,4- | D,2 A,,2 D,4- | D,6 C,2 | D,C,/B,,/ A,,/D,/F,,/A,,/ D,,2- D,,/A,,/B,,/C,/ | %29
 z F,A,C DA,DF- | FB,DF G z z2 | z G,B,^D EB,EG- | GCEG F4- | FDFA ^G2 z F- | FE/D/ E2 z A, z B, | %35
 z CEG F2 z E | ^D=C/B,/ CA,- A, A,2 F, | E,2 z ^G, A,=CA,F, | ^G,B,F,A, G,2 G,2- | G,B,A,=C A,4- | %40
 A,^G, A,2 B,E^D=D- | DB, =CE/^D/ E2 B,E- | E/A,/C/E/ D2 z/ E,/A,/C/[I:staff -1] E2 | %43
[I:staff +1] z A, B,2- B,B, C2- | CC[I:staff -1] D2- D-D E2- | E E2 E[I:staff +1] z A,2 A, | %46
 z B,E,A, z D,2 D,- | D,2 z =C B,A,B,D- | (9:8:4D3/2[I:staff -1]F/4E/4D/4 E2 D C2[I:staff +1] z | %49
 z2 C,2 E,2 A,2 | z2 C2 E4- | E2 D4 C2 | D z z2 z2 z F, | A,F,A,=C- CF, B,2- | B,-B,C^D E4- | %55
 E2 CF- FDB,E- | EC^A,C DCB,^G, | ^A,C^G,B, A,2 A,2- | A,^A,B,D B,4 | ^A, z z A, B, z z ^D | %60
 E z z ^D E z z2 | E,,E,=C,G,, E,,E,C,G,, | E,,E,D,G, C,B,,C,F, | B,,D,E,F, G,E,F,F,, | %64
 z2 z/ ^A,/B,/F,/ D,/B,,/D,/F,/ B,2 | z/ F,,/A,,/D,/ F,/A,/D/F/ z2 D,,2 | z2 z z/ D,/ G,4- | %67
 G, A,2 B,2 =C2 ^D, | E,3 B,, E,4- | E,A,/G,/ A,2 z D, z E, | z F,A,=C B,-B, z A, | %71
 ^G,=F,/E,/ F,D,- D, D,2 B,, | z B,,C,D, z C,D,=F, | z E,G,A, z =C,D,F, | G,3 ^G, A,3 ^A, | %75
 B,3 B, C3 C | D2 =C2 B,2 A,2 | G,2 =F,2 E,2 D,2 | z E, z =F,- F,E,/D,/ C,2 | z D,2 G,- G, F,2 E, | %80
 F,D,,F,,A,, D,3 z | z2 C,2 E,2 A,2 | z2 C2 E4- | E2 D4 C2 | D z z2 z2 z F, | A,F,A,=C- CF, B,2- | %86
 B,-B,C^D E4- | E2 CF- FDB,E- | EC^A,C DCB,^G, | ^A,C^G,B, A,2 A,2- | A,^A,B,D B,4 | %91
 ^A, z z A, B, z z ^D | E z z ^D E z z2 | E,,E,=C,G,, E,,E,C,G,, | E,,E,D,G, C,B,,C,F, | %95
 B,,D,E,F, G,E,F,F,, | z2 z/ ^A,/B,/F,/ D,/B,,/D,/F,/ B,2 | z/ F,,/A,,/D,/ F,/A,/D/F/ z2 D,,2 | %98
 z2 z z/ D,/ G,4- | G, A,2 B,2 =C2 ^D, | E,3 B,, E,4- | E,A,/G,/ A,2 z D, z E, | %102
 z F,A,=C B,-B, z A, | ^G,=F,/E,/ F,D,- D, D,2 B,, | z B,,C,D, z C,D,=F, | z E,G,A, z =C,D,F, | %106
 G,3 ^G, A,3 ^A, | B,3 B, C3 C | D2 =C2 B,2 A,2 | G,2 =F,2 E,2 D,2 | z E, z =F,- F,E,/D,/ C,2 | %111
 z D,2 G,- G, F,2 E, | F,D,,F,,A,, D,3 z |] %113
V:3
 x | D,,6 E,,2 | F,,6 D,,2 | G,,2 E,,2 A,,4 | x8 | D,4- D,2 z2 | G,4- G,A,G,F, | E,4- E,2 z2 | %8
 ^A,4- A,CA,F, | B,4- B,B, A,2 | ^G,3 E, F,2 G,2 | A,4- A,A, G,2 | F,2 E,2 F,2 ^D,2 | %13
 z E,, E,2- E,4- | E,4- E,3 E, | =F,2- F,2- F,F,E,^D, | E,4- E,4 | =F,2 ^F,2 z E,3 | %18
 F,2- F,/F,/E,/D,/ C,2- C,>A,, | D,3 ^D, E,3 ^E, | F,3 F, ^G,3 G, | A,2 G,2 F,2 E,2 | %22
 D,2 =C,2 B,,2 A,,2 | ^G,,^G, A,2 E,4 | A, A,,C,E, A,3 z | D,,6 E,,2 | F,,6 D,,2 | G,,2 E,,2 A,,4 | %28
 x8 | D,4- D,2 z2 | G,4- G,A,G,F, | E,4- E,2 z2 | ^A,4- A,CA,F, | B,4- B,B, A,2 | ^G,3 E, F,2 G,2 | %35
 A,4- A,A, G,2 | F,2 E,2 F,2 ^D,2 | z E,, E,2- E,4- | E,4- E,3 E, | =F,2- F,2- F,F,E,^D, | %40
 E,4- E,4 | =F,2 ^F,2 z E,3 | F,2- F,/F,/E,/D,/ C,2- C,>A,, | D,3 ^D, E,3 ^E, | F,3 F, ^G,3 G, | %45
 A,2 G,2 F,2 E,2 | D,2 =C,2 B,,2 A,,2 | ^G,,^G, A,2 E,4 | A, A,,C,E, A,3 x | A,,6 A,2 | G,6 G,2 | %51
 F,2 B,2 E,2 A,2 | DC/B,/ A,/D/F,/A,/ D,A,, D,2- | D,4 ^D,3 B,, | E,4- E,G,F,A, | %55
 G,B, ^A,2 B,2 G,2 | F,4- F,4- | F,4- F,3 F, | G,2- G,2- G,G,F,^E, | F,G,F,E, ^D,=CB,=A, | %60
 G,A,G,F, E,G,,A,,B,, | x8 | x8 | x8 | B,,6 z2 | x8 | G,,6 G,,2 | =C,2 B,,2 A,,2 B,,2 | %68
 E,B,, E,,3 C,D,B,, | C,3 A,, B,,2 C,2 | D,4- D,D, =C,2 | B,,2 A,,2 B,,2 ^G,,2 | A,,4 A,,4 | %73
 A,,4 A,,4 | x8 | x8 | x8 | x8 | C,2 D,2 A,,3 G,, | F,,2 G,,E, C,D, A,,2 | E, D,,3- D,,3 z | %81
 A,,6 A,2 | G,6 G,2 | F,2 B,2 E,2 A,2 | DC/B,/ A,/D/F,/A,/ D,A,, D,2- | D,4 ^D,3 B,, | %86
 E,4- E,G,F,A, | G,B, ^A,2 B,2 G,2 | F,4- F,4- | F,4- F,3 F, | G,2- G,2- G,G,F,^E, | %91
 F,G,F,E, ^D,=CB,=A, | G,A,G,F, E,G,,A,,B,, | x8 | x8 | x8 | B,,6 z2 | x8 | G,,6 G,,2 | %99
 =C,2 B,,2 A,,2 B,,2 | E,B,, E,,3 C,D,B,, | C,3 A,, B,,2 C,2 | D,4- D,D, =C,2 | %103
 B,,2 A,,2 B,,2 ^G,,2 | A,,4 A,,4 | A,,4 A,,4 | x8 | x8 | x8 | x8 | C,2 D,2 A,,3 G,, | %111
 F,,2 G,,E, C,D, A,,2 | E, !fermata!D,,3- D,,3 x |] %113
V:4
 x | x8 | D4 z4 | x8 | x8 | A4 z4 | x8 | x8 | x8 | x8 | x8 | x8 | x8 | x8 | z4 z[I:staff +1] B,3- | %15
 B,[I:staff -1] z z2 z4 | z[I:staff +1] D2 =C B,[I:staff -1] z z2 | z6 ^G2 | x8 | x8 | x8 | x8 | %22
 x8 | x8 | x8 | x8 | D4 z4 | x8 | x8 | A4 z4 | x8 | x8 | x8 | x8 | x8 | x8 | x8 | x8 | %38
 z4 z[I:staff +1] B,3- | B,[I:staff -1] z z2 z4 | z[I:staff +1] D2 =C B,[I:staff -1] z z2 | %41
 z6 ^G2 | x8 | x8 | x8 | x8 | x8 | x8 | x8 | x8 | x8 | x8 | x8 | x8 | x8 | x8 | x8 | %57
 z4 z[I:staff +1] C3- | C[I:staff -1] z z2 z4 | x8 | x8 | x8 | x8 | x8 | z/ E/F/C/ D4 z2 | x8 | %66
 z z/ F/ G/D/B, z4 | x8 | x8 | x8 | x8 | x8 | x8 | x8 | z D E2- EE F2- | FF G2- GG A2- | %76
 A A2 A z D2 D | z EA,D z[I:staff +1] G,2 G, | x8 | x8 | %80
[I:staff -1] (9:8:4D3/2B,/4A,/4G,/4 A,2[I:staff +1] G, F,2 x | x8 | x8 | x8 | x8 | x8 | x8 | x8 | %88
 x8 |[I:staff -1] z4 z[I:staff +1] C3- | C[I:staff -1] z z2 z4 | x8 | x8 | x8 | x8 | x8 | %96
 z/ E/F/C/ D4 z2 | x8 | z z/ F/ G/D/B, z4 | x8 | x8 | x8 | x8 | x8 | x8 | x8 | z D E2- EE F2- | %107
 FF G2- GG A2- | A A2 A z D2 D | z EA,D z[I:staff +1] G,2 G, | x8 | x8 | %112
[I:staff -1] (9:8:4D3/2B,/4A,/4G,/4 A,2[I:staff +1] G, !fermata!F,2 x |] %113
V:5
 x | x8 | x8 | x8 | x8 | x8 | x8 | x8 | x8 | x8 | x8 | x8 | x8 | x8 | x8 | x8 | x8 | x8 | x8 | x8 | %20
 x8 | x8 | x8 | x8 | z A,,3- A,,3 z | x8 | x8 | x8 | x8 | x8 | x8 | x8 | x8 | x8 | x8 | x8 | x8 | %37
 x8 | x8 | x8 | x8 | x8 | x8 | x8 | x8 | x8 | x8 | x8 | z A,,3- A,,3 x | x8 | x8 | x8 | x8 | x8 | %54
 x8 | x8 | x8 | x8 | x8 | x8 | x8 | x8 | x8 | x8 | x8 | x8 | x8 | x8 | x8 | x8 | x8 | x8 | x8 | %73
 x8 | x8 | x8 | x8 | x8 | x8 | x8 | x8 | x8 | x8 | x8 | x8 | x8 | x8 | x8 | x8 | x8 | x8 | x8 | %92
 x8 | x8 | x8 | x8 | x8 | x8 | x8 | x8 | x8 | x8 | x8 | x8 | x8 | x8 | x8 | x8 | x8 | x8 | x8 | %111
 x8 | x8 |] %113

